poi/svg/2318.svg

<?xml version="1.0" encoding="UTF-8" standalone="no"?>
<svg
   xmlns:dc="http://purl.org/dc/elements/1.1/"
   xmlns:cc="http://creativecommons.org/ns#"
   xmlns:rdf="http://www.w3.org/1999/02/22-rdf-syntax-ns#"
   xmlns:svg="http://www.w3.org/2000/svg"
   xmlns="http://www.w3.org/2000/svg"
   xmlns:sodipodi="http://sodipodi.sourceforge.net/DTD/sodipodi-0.dtd"
   xmlns:inkscape="http://www.inkscape.org/namespaces/inkscape"
   inkscape:version="1.0 (4035a4fb49, 2020-05-01)"
   sodipodi:docname="2318.svg"
   id="svg20"
   version="1.2"
   viewBox="0 0 42.519639 42.519639"
   height="14.999999mm"
   width="14.999999mm">
  <metadata
     id="metadata24">
    <rdf:RDF>
      <cc:Work
         rdf:about="">
        <dc:format>image/svg+xml</dc:format>
        <dc:type
           rdf:resource="http://purl.org/dc/dcmitype/StillImage" />
        <dc:title>Qt SVG Document</dc:title>
      </cc:Work>
    </rdf:RDF>
  </metadata>
  <sodipodi:namedview
     inkscape:current-layer="svg20"
     inkscape:window-maximized="0"
     inkscape:window-y="0"
     inkscape:window-x="0"
     inkscape:cy="28.346482"
     inkscape:cx="28.346482"
     inkscape:zoom="5.8410537"
     showgrid="false"
     id="namedview22"
     inkscape:window-height="480"
     inkscape:window-width="1034"
     inkscape:pageshadow="2"
     inkscape:pageopacity="0"
     guidetolerance="10"
     gridtolerance="10"
     objecttolerance="10"
     borderopacity="1"
     bordercolor="#666666"
     pagecolor="#ffffff" />
  <title
     id="title2">Qt SVG Document</title>
  <desc
     id="desc4">Generated with Qt</desc>
  <defs
     id="defs6" />
  <g
     transform="translate(5.25984,5.25984)"
     id="g18"
     stroke-linejoin="bevel"
     stroke-linecap="square"
     fill-rule="evenodd"
     stroke-width="1"
     stroke="#000000"
     fill="none">
    <g
       id="g10"
       font-style="normal"
       font-weight="400"
       font-size="7.8px"
       font-family="'MS Shell Dlg 2'"
       stroke="none"
       fill-opacity="1"
       fill="#ef4b65">
      <path
         id="path8"
         d="M 37.2598,16 C 37.2598,27.7415 27.7415,37.2598 16,37.2598 4.25851,37.2598 -5.25984,27.7415 -5.25984,16 -5.25984,4.25851 4.25851,-5.25984 16,-5.25984 27.7415,-5.25984 37.2598,4.25851 37.2598,16"
         fill-rule="evenodd"
         vector-effect="non-scaling-stroke" />
    </g>
    <g
       id="g14"
       font-style="normal"
       font-weight="400"
       font-size="7.8px"
       font-family="'MS Shell Dlg 2'"
       transform="translate(18.2677,10.3307)"
       stroke="none"
       fill-opacity="0.94902"
       fill="#ffffff">
      <path
         id="path12"
         d="m 13.7095,10.2827 c 0,0.28 -0.0945,0.5179 -0.2835,0.7139 -0.1889,0.1959 -0.4164,0.2939 -0.6823,0.2939 -0.5319,0.042 -0.9659,0.273 -1.3018,0.6929 C 10.84,12.5433 10.1681,12.9352 9.42627,13.1592 8.81038,13.3411 8.1875,13.3656 7.55762,13.2327 6.92773,13.0997 6.36784,12.8302 5.87793,12.4243 L 5.14307,11.7104 c -0.29395,-0.3219 -0.65438,-0.4829 -1.0813,-0.4829 -0.42692,0 -0.78736,0.147 -1.0813,0.441 l -0.04199,0.0419 c -0.15397,0.098 -0.29745,0.21 -0.43042,0.336 -0.13298,0.126 -0.27645,0.2519 -0.43042,0.3779 -0.36394,0.308 -0.75936,0.5319 -1.186283,0.6719 -0.42692,0.14 -0.8573401,0.203 -1.291259,0.189 -0.43392,-0.014 -0.860838,-0.105 -1.280758,-0.273 -0.41993,-0.168 -0.80485,-0.3989 -1.15479,-0.6929 l -0.20996,-0.1889 v 6.1518 c 0,0.28 -0.10148,0.5179 -0.30444,0.7139 -0.20297,0.196 -0.44442,0.2939 -0.72437,0.2939 h -8.02048 c -0.056,0 -0.112,0 -0.168,0 -0.056,0 -0.105,-0.014 -0.147,-0.042 -0.2659,-0.0699 -0.4619,-0.2344 -0.5879,-0.4934 -0.1259,-0.2589 -0.1469,-0.5074 -0.0629,-0.7453 l 0.9658,-4.0523 c 0.056,-0.1959 0.1155,-0.4374 0.1784,-0.7243 0.063,-0.287 0.1295,-0.5564 0.1995,-0.8084 0.07,-0.2939 0.14,-0.6019 0.21,-0.9238 L -9.07129,1.31738 c 0.23796,-0.937823 0.46891,-1.854652 0.69287,-2.75049 0.19597,-0.76985 0.39543,-1.5712 0.59839,-2.40405 0.20296,-0.83284 0.38143,-1.56421 0.5354,-2.19409 0.028,-0.20996 0.13648,-0.38493 0.32544,-0.5249 0.18897,-0.13998 0.40243,-0.20996 0.64038,-0.20996 h 2.20459 c 0.27995,0 0.5214,0.09798 0.72437,0.29394 0.20296,0.19597 0.30444,0.43392 0.30444,0.71387 v 7.32764 c 0.15397,0.06998 0.30794,0.15397 0.46191,0.25195 0.15398,0.09798 0.30795,0.19596 0.46192,0.29394 0.15397,0.13998 0.30794,0.27995 0.46191,0.41993 0.15397,0.13997 0.31494,0.27295 0.48291,0.39892 0.27995,0.26595 0.612388,0.39893 0.997317,0.39893 0.384928,0 0.717366,-0.13298 0.997314,-0.39893 C 0.971842,2.80811 1.11882,2.67513 1.25879,2.53516 1.39876,2.39518 1.55973,2.25521 1.7417,2.11523 2.10563,1.82129 2.50106,1.60433 2.92798,1.46436 3.3549,1.32438 3.78532,1.25439 4.21924,1.25439 c 0.43392,0 0.86084,0.06999 1.28076,0.20997 0.41992,0.13997 0.80485,0.35693 1.15479,0.65087 0.26595,0.25196 0.57389,0.51791 0.92382,0.79786 0.27995,0.25195 0.60889,0.37793 0.98682,0.37793 0.37793,0 0.70687,-0.12598 0.98682,-0.37793 L 10.4761,2.07324 c 0.6299,-0.5459 1.3787,-0.81885 2.2466,-0.81885 0.2799,0 0.5214,0.09799 0.7243,0.29395 0.203,0.19596 0.3045,0.43392 0.3045,0.71387 0,0.27994 -0.1015,0.5179 -0.3045,0.71386 -0.2029,0.19597 -0.4444,0.29395 -0.7243,0.29395 -0.28,0.014 -0.5319,0.08398 -0.7559,0.20996 -0.224,0.12598 -0.4199,0.28695 -0.5879,0.48291 C 11.099,4.24284 10.791,4.48079 10.4551,4.67676 10.1191,4.87272 9.76221,5.02669 9.38428,5.13867 8.76839,5.33464 8.14901,5.36613 7.52612,5.23315 6.90324,5.10018 6.34684,4.83073 5.85693,4.4248 L 5.16406,3.75293 C 4.88411,3.41699 4.53068,3.24902 4.10376,3.24902 c -0.42692,0 -0.78735,0.15397 -1.0813,0.46192 L 2.98047,3.75293 C 2.8265,3.86491 2.68302,3.98039 2.55005,4.09937 2.41707,4.21834 2.2736,4.34082 2.11963,4.4668 1.7557,4.76074 1.36377,4.9777 0.943848,5.11768 0.523926,5.25765 0.0935059,5.32064 -0.347412,5.30664 -0.78833,5.29264 -1.21875,5.20166 -1.63867,5.03369 -2.05859,4.86572 -2.44352,4.62777 -2.79346,4.31982 L -3.0874,4.06787 v 5.52197 c 0.16797,0.05599 0.32544,0.13298 0.47241,0.23096 0.14697,0.09798 0.29744,0.203 0.45142,0.3149 0.29394,0.28 0.60888,0.5529 0.94482,0.8189 0.279948,0.2659 0.612386,0.3989 0.997314,0.3989 0.384929,0 0.717367,-0.133 0.997315,-0.3989 C 0.915853,10.8146 1.06283,10.6781 1.2168,10.5452 1.37077,10.4122 1.53174,10.2757 1.69971,10.1357 2.06364,9.8418 2.45907,9.62134 2.88599,9.47437 3.31291,9.32739 3.74333,9.25391 4.17725,9.25391 c 0.43392,0 0.86084,0.07348 1.28076,0.22046 0.41992,0.14697 0.81185,0.36743 1.17578,0.66133 0.13997,0.14 0.27995,0.2695 0.41992,0.3885 0.13997,0.1189 0.28695,0.2484 0.44092,0.3884 0.27995,0.2659 0.61588,0.3989 1.00781,0.3989 0.39193,0 0.72787,-0.133 1.00781,-0.3989 l 0.92385,-0.7979 c 0.6439,-0.53185 1.3927,-0.79781 2.2466,-0.79781 0.2799,0 0.5214,0.08749 0.7243,0.26246 0.203,0.17496 0.3045,0.40942 0.3045,0.70335"
         fill-rule="evenodd"
         vector-effect="none" />
    </g>
    <g
       id="g16"
       font-style="normal"
       font-weight="400"
       font-size="7.8px"
       font-family="'MS Shell Dlg 2'"
       stroke="none"
       fill-opacity="1"
       fill="#ef4b65" />
  </g>
</svg>

<?xml version="1.0" encoding="UTF-8" standalone="no"?>
<svg width="11.2889mm" height="11.2889mm"
 viewBox="0 0 32 32"
 xmlns="http://www.w3.org/2000/svg" xmlns:xlink="http://www.w3.org/1999/xlink"  version="1.2" baseProfile="tiny">
<title>Qt SVG Document</title>
<desc>Generated with Qt</desc>
<defs>
</defs>
<g fill="none" stroke="black" stroke-width="1" fill-rule="evenodd" stroke-linecap="square" stroke-linejoin="bevel" >

<g fill="#ef4b65" fill-opacity="1" stroke="none" transform="matrix(1,0,0,1,0,0)"
font-family="MS Shell Dlg 2" font-size="7.8" font-weight="400" font-style="normal" 
>
<path vector-effect="non-scaling-stroke" fill-rule="evenodd" d="M37.2598,16 C37.2598,27.7415 27.7415,37.2598 16,37.2598 C4.25851,37.2598 -5.25984,27.7415 -5.25984,16 C-5.25984,4.25851 4.25851,-5.25984 16,-5.25984 C27.7415,-5.25984 37.2598,4.25851 37.2598,16 "/>
</g>

<g fill="#ffffff" fill-opacity="0.94902" stroke="none" transform="matrix(1,0,0,1,18.2677,10.3307)"
font-family="MS Shell Dlg 2" font-size="7.8" font-weight="400" font-style="normal" 
>
<path vector-effect="none" fill-rule="evenodd" d="M13.7095,10.2827 C13.7095,10.5627 13.615,10.8006 13.426,10.9966 C13.2371,11.1925 13.0096,11.2905 12.7437,11.2905 C12.2118,11.3325 11.7778,11.5635 11.4419,11.9834 C10.84,12.5433 10.1681,12.9352 9.42627,13.1592 C8.81038,13.3411 8.1875,13.3656 7.55762,13.2327 C6.92773,13.0997 6.36784,12.8302 5.87793,12.4243 L5.14307,11.7104 C4.84912,11.3885 4.48869,11.2275 4.06177,11.2275 C3.63485,11.2275 3.27441,11.3745 2.98047,11.6685 L2.93848,11.7104 C2.78451,11.8084 2.64103,11.9204 2.50806,12.0464 C2.37508,12.1724 2.23161,12.2983 2.07764,12.4243 C1.7137,12.7323 1.31828,12.9562 0.891357,13.0962 C0.464437,13.2362 0.0340169,13.2992 -0.399902,13.2852 C-0.833822,13.2712 -1.26074,13.1802 -1.68066,13.0122 C-2.10059,12.8442 -2.48551,12.6133 -2.83545,12.3193 L-3.04541,12.1304 L-3.04541,18.2822 C-3.04541,18.5622 -3.14689,18.8001 -3.34985,18.9961 C-3.55282,19.1921 -3.79427,19.29 -4.07422,19.29 L-12.0947,19.29 C-12.1507,19.29 -12.2067,19.29 -12.2627,19.29 C-12.3187,19.29 -12.3677,19.276 -12.4097,19.248 C-12.6756,19.1781 -12.8716,19.0136 -12.9976,18.7546 C-13.1235,18.4957 -13.1445,18.2472 -13.0605,18.0093 L-12.0947,13.957 C-12.0387,13.7611 -11.9792,13.5196 -11.9163,13.2327 C-11.8533,12.9457 -11.7868,12.6763 -11.7168,12.4243 C-11.6468,12.1304 -11.5768,11.8224 -11.5068,11.5005 L-9.07129,1.31738 C-8.83333,0.379557 -8.60238,-0.537272 -8.37842,-1.43311 C-8.18245,-2.20296 -7.98299,-3.00431 -7.78003,-3.83716 C-7.57707,-4.67 -7.3986,-5.40137 -7.24463,-6.03125 C-7.21663,-6.24121 -7.10815,-6.41618 -6.91919,-6.55615 C-6.73022,-6.69613 -6.51676,-6.76611 -6.27881,-6.76611 L-4.07422,-6.76611 C-3.79427,-6.76611 -3.55282,-6.66813 -3.34985,-6.47217 C-3.14689,-6.2762 -3.04541,-6.03825 -3.04541,-5.7583 L-3.04541,1.56934 C-2.89144,1.63932 -2.73747,1.72331 -2.5835,1.82129 C-2.42952,1.91927 -2.27555,2.01725 -2.12158,2.11523 C-1.96761,2.25521 -1.81364,2.39518 -1.65967,2.53516 C-1.5057,2.67513 -1.34473,2.80811 -1.17676,2.93408 C-0.89681,3.20003 -0.564372,3.33301 -0.179443,3.33301 C0.205485,3.33301 0.537923,3.20003 0.817871,2.93408 C0.971842,2.80811 1.11882,2.67513 1.25879,2.53516 C1.39876,2.39518 1.55973,2.25521 1.7417,2.11523 C2.10563,1.82129 2.50106,1.60433 2.92798,1.46436 C3.3549,1.32438 3.78532,1.25439 4.21924,1.25439 C4.65316,1.25439 5.08008,1.32438 5.5,1.46436 C5.91992,1.60433 6.30485,1.82129 6.65479,2.11523 C6.92074,2.36719 7.22868,2.63314 7.57861,2.91309 C7.85856,3.16504 8.1875,3.29102 8.56543,3.29102 C8.94336,3.29102 9.2723,3.16504 9.55225,2.91309 L10.4761,2.07324 C11.106,1.52734 11.8548,1.25439 12.7227,1.25439 C13.0026,1.25439 13.2441,1.35238 13.447,1.54834 C13.65,1.7443 13.7515,1.98226 13.7515,2.26221 C13.7515,2.54215 13.65,2.78011 13.447,2.97607 C13.2441,3.17204 13.0026,3.27002 12.7227,3.27002 C12.4427,3.28402 12.1908,3.354 11.9668,3.47998 C11.7428,3.60596 11.5469,3.76693 11.3789,3.96289 C11.099,4.24284 10.791,4.48079 10.4551,4.67676 C10.1191,4.87272 9.76221,5.02669 9.38428,5.13867 C8.76839,5.33464 8.14901,5.36613 7.52612,5.23315 C6.90324,5.10018 6.34684,4.83073 5.85693,4.4248 L5.16406,3.75293 C4.88411,3.41699 4.53068,3.24902 4.10376,3.24902 C3.67684,3.24902 3.31641,3.40299 3.02246,3.71094 L2.98047,3.75293 C2.8265,3.86491 2.68302,3.98039 2.55005,4.09937 C2.41707,4.21834 2.2736,4.34082 2.11963,4.4668 C1.7557,4.76074 1.36377,4.9777 0.943848,5.11768 C0.523926,5.25765 0.0935059,5.32064 -0.347412,5.30664 C-0.78833,5.29264 -1.21875,5.20166 -1.63867,5.03369 C-2.05859,4.86572 -2.44352,4.62777 -2.79346,4.31982 L-3.0874,4.06787 L-3.0874,9.58984 C-2.91943,9.64583 -2.76196,9.72282 -2.61499,9.8208 C-2.46802,9.91878 -2.31755,10.0238 -2.16357,10.1357 C-1.86963,10.4157 -1.55469,10.6886 -1.21875,10.9546 C-0.938802,11.2205 -0.606364,11.3535 -0.221436,11.3535 C0.163493,11.3535 0.495931,11.2205 0.775879,10.9546 C0.915853,10.8146 1.06283,10.6781 1.2168,10.5452 C1.37077,10.4122 1.53174,10.2757 1.69971,10.1357 C2.06364,9.8418 2.45907,9.62134 2.88599,9.47437 C3.31291,9.32739 3.74333,9.25391 4.17725,9.25391 C4.61117,9.25391 5.03809,9.32739 5.45801,9.47437 C5.87793,9.62134 6.26986,9.8418 6.63379,10.1357 C6.77376,10.2757 6.91374,10.4052 7.05371,10.5242 C7.19368,10.6431 7.34066,10.7726 7.49463,10.9126 C7.77458,11.1785 8.11051,11.3115 8.50244,11.3115 C8.89437,11.3115 9.23031,11.1785 9.51025,10.9126 L10.4341,10.1147 C11.078,9.58285 11.8268,9.31689 12.6807,9.31689 C12.9606,9.31689 13.2021,9.40438 13.405,9.57935 C13.608,9.75431 13.7095,9.98877 13.7095,10.2827 "/>
</g>

<g fill="#ef4b65" fill-opacity="1" stroke="none" transform="matrix(1,0,0,1,0,0)"
font-family="MS Shell Dlg 2" font-size="7.8" font-weight="400" font-style="normal" 
>
</g>
</g>
</svg>
